!!!COM:	Bach, Johann Sebastian
!!!CDT:	1685/02/21/-1750/07/28/
!!!OTL@@DE:	Christ ist erstanden
!!!SCT:	BWV 276
!!!PC#:	197
!!!AGN:	chorale
**kern	**kern	**kern	**kern
*ICvox	*ICvox	*ICvox	*ICvox
*Ibass	*Itenor	*Ialto	*Isoprn
*I"Bass	*I"Tenor	*I"Alto	*I"Soprano
*clefF4	*clefGv2	*clefG2	*clefG2
*k[]	*k[]	*k[]	*k[]
*d:dor	*d:dor	*d:dor	*d:dor
*M4/4	*M4/4	*M4/4	*M4/4
*met(c)	*met(c)	*met(c)	*met(c)
*MM100	*MM100	*MM100	*MM100
4D	8dL	[4f	4a
.	8cJ	.	.
=1	=1	=1	=1
8.EL	4B	8fL]	4g
.	.	8eJ	.
16DJk	.	.	.
8CL	8cL	8eL	8aL
8BBJ	8dJ	8g#J	8bJ
4AA	8eL	4.a	4cc
.	16fL	.	.
.	16eJJ	.	.
8.BB-L	4d	.	4dd
.	.	[8gn	.
16CJk	.	.	.
=2	=2	=2	=2
2D;	2d;	8gL]	2a;
.	.	16fL	.
.	.	16eJJ	.
.	.	4f;	.
4C#	4A	4e	4a
8DL	4A	4d	8fL
8EJ	.	.	8gJ
=3	=3	=3	=3
4.F	4A	8cL	8aL
.	.	8c#J	8gJ
.	4A	4d	4f
8FF	.	.	.
8GGL	8B-L	8c#	8eL
8BB-J	8FJ	4d	8dJ
4AA	8GL	.	4e
.	16AL	8c#	.
.	16GJJ	.	.
=4	=4	=4	=4
2D;	2F;	2A;	2d;
4r	4ry	4ry	4r
4DD	4A	[4d	4f
=5	=5	=5	=5
4.EE	8EL	8dL]	4g
.	8FJ	16cnL	.
.	.	16BJJ	.
.	[4G	[4c	4g
8FF	.	.	.
8GGL	16GLL]	8c]	4d
.	16DJJ	.	.
8GG#J	4E	4B	.
[4AA	.	.	4c
.	16FLL	16ALL	.
.	16GJJ	16B-JJ	.
=6	=6	=6	=6
8AAL]	8AL	8cL	4f
8BB-J	8FJ	8dJ	.
8AAL	4B-X	4e	4g
8GGJ	.	.	.
4FF;	4c;	4f;	4a;
4C#	4A	[4e	8aL
.	.	.	8gJ
=7	=7	=7	=7
4D	4A	8e]	4f
.	.	4d	.
4E	8GL	.	4g
.	8B-J	8c#	.
8FL	[4A	4.d	8aL
8EJ	.	.	8gJ
4D	16ALL]	.	4f
.	16GJ	.	.
.	8AJ	8cn	.
=8	=8	=8	=8
8DL	16GLL	8B-	4e
.	16FJ	.	.
8C#J	8GJ	4A	.
4D	16FLL	.	4d
.	16EJ	.	.
.	8FJ	8Bn	.
2AA;	2E;	2c#;	2e;
=9	=9	=9	=9
8FF#L	8AL	4d	4d
8EE	8G	.	.
8FF#	8A	4cn	4d
8DDJ	8F#XJ	.	.
8GGL	8GL	4c	2d
8AA	8DJ	.	.
8BB-	[4G	[4B-	.
8GGJ	.	.	.
=10	=10	=10	=10
2D	4G]	4B-]	1d;
.	8F#L	8AL	.
.	8EJ	8GJ	.
2DD;	2F#;	2A;	.
=11||	=11||	=11||	=11||
*M4/4	*M4/4	*M4/4	*M4/4
*met(c)	*met(c)	*met(c)	*met(c)
8DL	4d	4f	4a
8EJ	.	.	.
[4F	8cL	8eL	4a
.	8BnJ	8dJ	.
8FL]	4c	8gL	4g
8E	.	8b-J	.
8F	4c	8aL	8aL
8GJ	.	8gJ	8b-J
=12	=12	=12	=12
8AL	4.c	2f	4cc
8FJ	.	.	.
4B-	.	.	4dd
.	8B-	.	.
4F;	4c;	4f;	4a;
4F	8cL	4f	4a
.	8dJ	.	.
=13	=13	=13	=13
4C#	8e	4e	8.aL
.	4A	.	.
.	.	.	16gJk
[4D	.	8dL	8fL
.	8G	8eJ	8gJ
8DL]	8FL	8fL	8aL
8E	8GJ	8c#J	8gJ
8F	4A	[4d	4f
8GJ	.	.	.
=14	=14	=14	=14
4A	4.A	4d]	8eL
.	.	.	8dJ
4AA	.	4c#	4e
.	8G	.	.
4BB-;	4F;	4d;	4d;
4AA	4A	4cn	4f
=15	=15	=15	=15
8EEL	8GL	8cL	4g
8DD	8FJ	8BnJ	.
8EE	4G	[4c	4g
8FFJ	.	.	.
4GG	8.GL	8c]	4d
.	.	4B-	.
.	16FJk	.	.
[4AA	4E	.	4c
.	.	16ALL	.
.	.	16GJJ	.
=16	=16	=16	=16
8AAL]	4A	4c	4f
8GG	.	.	.
8FF	4G	4c	4g
8EEJ	.	.	.
4FF;	4F;	4c;	4a;
8FL	8AL	8cL	4a
8EJ	8GJ	8c#J	.
=17	=17	=17	=17
[2D	8FL	4d	8aL
.	8EJ	.	8gJ
.	8DL	4A	8.fL
.	8EJ	.	.
.	.	.	16gJk
8DL]	8FL	4d	4a
8E	8GJ	.	.
8F	[4A	[4d	4f
8GJ	.	.	.
=18	=18	=18	=18
8AL	8AL]	8d]	4e
8AAJ	8EJ	4c	.
4D	4F	.	4d
.	.	8B	.
2C;	2G;	2c;	2e;
=19	=19	=19	=19
8FF#L	8A	8cL	4d
8GGJ	4G	8B-J	.
4.C	.	4A	4d
.	8F#	.	.
.	8GL	4.G	2d
16BB-LL	8DJ	.	.
16AAJJ	.	.	.
8BB-L	[4G	.	.
8GGJ	.	8B-	.
=20	=20	=20	=20
2D	4G]	1d;	1A;
.	8F#L	.	.
.	8EJ	.	.
2DD;	2F#;	.	.
=21||	=21||	=21||	=21||
*M4/4	*M4/4	*M4/4	*M4/4
*met(c)	*met(c)	*met(c)	*met(c)
4C#	[4A	4e	4a
=22	=22	=22	=22
4D	8AL]	4d	4f
.	8B-	.	.
4E	8A	4c	4cc
.	8GJ	.	.
4F;	4F;	4c;	4a;
8AAL	4F	8cL	8ccL
8BB-XJ	.	8dJ	8b-J
=23	=23	=23	=23
4C	4.c	8e	4a
.	.	4f	.
4CC	.	.	4g
.	8B-	8e	.
4FF;	4A;	4c;	4f;
4C#	4A	[4e	8aL
.	.	.	8gJ
=24	=24	=24	=24
8DL	4A	8e]	4f
8DD	.	4d	.
8EE	8GL	.	4e
8FF#J	8AJ	[8cn	.
4GG;	4D;	8cL]	4d;
.	.	8B-;J	.
4AA	8AL	4c	4f
.	8FnJ	.	.
=25	=25	=25	=25
4BBn	16DLL	4d	4g
.	16EJJ	.	.
.	4F	.	.
[4C	.	8cL	4g
.	8E	8GJ	.
8CL]	8F#L	8AL	4d
8BBJ	8G#J	8BnJ	.
[4AA	8AL	8cL	4c
.	8GnJ	8B-J	.
=26	=26	=26	=26
8AAL]	16FLL	16ALL	4f
.	16EJJ	16GJ	.
8D	4F	8AJ	.
8BB-	.	8dL	4g
8CJ	8E	8cJ	.
4F;	4F;	4c;	4a;
4FF	[4c	8fL	8aL
.	.	8eJ	8gJ
=27	=27	=27	=27
4BB-	8cL]	[4d	4f
.	16B-XL	.	.
.	16AJJ	.	.
8E-L	[4G	8dL]	4g
8DJ	.	16cL	.
.	.	16B-JJ	.
8C#L	8GL]	[4A	4a
8AAJ	16FL	.	.
.	16EnJJ	.	.
[4D	8FL	8AL]	4f
.	16B-L	16dL	.
.	16AJJ	16cJJ	.
=28	=28	=28	=28
8DL]	8G#L	8Bn	4e
8CnJ	8AJ	4A	.
4BBn	8dL	.	4d
.	8DJ	8G#	.
2AA;	2A;	2c#;	2e;
=29	=29	=29	=29
8BB-L	8FL	4d	4d
8AA	8GnJ	.	.
8GG	[4A	4cn	4d
8FF#J	.	.	.
8GGL	8AL]	8B-L	2d
8AA	16GL	8AJ	.
.	16F#XJJ	.	.
8BB-	[4G	16GnLL	.
.	.	16AJ	.
8GGJ	.	[8B-J	.
=30	=30	=30	=30
1DD;	8GL]	8B-L]	1d;
.	8F#	8A	.
.	8G	8B-	.
.	8EJ	8GJ	.
.	2F#;	2A;	.
==	==	==	==
*-	*-	*-	*-
!!!hum2abc: -Q ''
!!!title: @{PC#}. @{OTL@@DE}
!!!YOR1: 371 vierstimmige Choralges&auml;nge von Johann Sebastian Bach, 
!!!YOR2: 4th ed. by Alfred D&ouml;rffel (Leipzig: Breitkopf und H&auml;rtel, 
!!!YOR2: c.1875). 178 pp. Plate "V.A.10".  reprint: J.S. Bach, 371 Four-Part 
!!!YOR4: Chorales (New York: Associated Music Publishers, Inc., c.1940).
!!!SMS: B&H, 4th ed, Alfred D&ouml;rffel, c.1875, plate V.A.10
!!!EED:  Craig Stuart Sapp
!!!EEV:  2009/05/22
